drawable_resources/logo.svg

<?xml version="1.0" encoding="UTF-8" standalone="no"?>
<svg
   xmlns:dc="http://purl.org/dc/elements/1.1/"
   xmlns:cc="http://creativecommons.org/ns#"
   xmlns:rdf="http://www.w3.org/1999/02/22-rdf-syntax-ns#"
   xmlns:svg="http://www.w3.org/2000/svg"
   xmlns="http://www.w3.org/2000/svg"
   xmlns:sodipodi="http://sodipodi.sourceforge.net/DTD/sodipodi-0.dtd"
   xmlns:inkscape="http://www.inkscape.org/namespaces/inkscape"
   enable-background="new 0 0 595.275 311.111"
   xml:space="preserve"
   height="1064"
   width="1064"
   version="1.1"
   y="0px"
   x="0px"
   viewBox="0 0 1064 1063.9999"
   id="svg2"
   inkscape:version="0.92.1 r15371"
   sodipodi:docname="logo.svg"
   inkscape:export-filename="/tmp/ic_launcher.png"
   inkscape:export-xdpi="16.24"
   inkscape:export-ydpi="16.24"><metadata
     id="metadata12"><rdf:RDF><cc:Work
         rdf:about=""><dc:format>image/svg+xml</dc:format><dc:type
           rdf:resource="http://purl.org/dc/dcmitype/StillImage" /><dc:title></dc:title></cc:Work></rdf:RDF></metadata><defs
     id="defs10"><clipPath
       clipPathUnits="userSpaceOnUse"
       id="clipPath3350"><rect
         style="opacity:1;fill:#0082c9;fill-opacity:1;stroke:none;stroke-width:5.56599998;stroke-linecap:round;stroke-linejoin:round;stroke-miterlimit:10;stroke-dasharray:none;stroke-opacity:1"
         id="rect3352"
         width="1064"
         height="1064"
         x="-20"
         y="-20.000061"
         rx="84"
         ry="84" /></clipPath></defs><sodipodi:namedview
     pagecolor="#ffffff"
     bordercolor="#666666"
     borderopacity="1"
     objecttolerance="10"
     gridtolerance="10"
     guidetolerance="10"
     inkscape:pageopacity="0"
     inkscape:pageshadow="2"
     inkscape:window-width="1920"
     inkscape:window-height="1005"
     id="namedview8"
     showgrid="false"
     inkscape:zoom="0.32"
     inkscape:cx="-858.31131"
     inkscape:cy="664.87545"
     inkscape:current-layer="svg2"
     fit-margin-top="0"
     fit-margin-left="0"
     fit-margin-right="0"
     fit-margin-bottom="0"
     inkscape:window-x="-9"
     inkscape:window-y="-9"
     inkscape:window-maximized="1" /><path
     style="color:#000000;text-indent:0;text-decoration:none;text-decoration-line:none;text-decoration-style:solid;text-decoration-color:#000000;text-transform:none;block-progression:tb;white-space:normal;isolation:auto;mix-blend-mode:normal;solid-color:#000000;fill:#ffffff;color-rendering:auto;image-rendering:auto;shape-rendering:auto;enable-background:accumulate"
     d="m 532.68096,316.07009 c -93.35126,0.009 -171.73632,63.92879 -195.6864,149.91791 -20.90398,-45.99328 -66.91627,-78.5879 -120.3776,-78.59385 -72.77312,0.008 -132.608,59.84889 -132.61696,132.62749 -0.0144,72.79356 59.82891,132.64544 132.61696,132.6544 53.46731,-0.007 99.45003,-32.62151 120.35072,-78.62074 23.94141,86.00403 102.35306,149.9358 195.71626,149.9448 92.84054,0.01 170.84032,-63.22992 195.27726,-148.4992 21.2426,45.14803 66.5489,77.16618 119.395,77.17216 C 920.1591,652.68596 980.0119,592.82717 980,520.01866 979.99,447.22512 920.1442,387.3792 847.3562,387.39114 794.5071,387.39714 749.1755,419.40935 727.9343,464.5633 703.49738,379.297 625.52448,316.05812 532.68394,316.0641 Z m 0,77.85612 c 70.10602,-0.005 126.10902,55.98698 126.11498,126.09843 0.004,70.12039 -56,126.13127 -126.11498,126.12532 -70.10602,-0.007 -126.09408,-56.01389 -126.0881,-126.12532 0.007,-70.10249 55.99104,-126.08947 126.0881,-126.09843 z m -316.07893,71.32407 c 30.71189,0.004 54.76352,24.05843 54.7665,54.77136 0.005,30.71894 -24.04983,54.79529 -54.7665,54.79827 -30.71787,-0.004 -54.77248,-24.07933 -54.76651,-54.79827 0.004,-30.71293 24.05641,-54.76839 54.76651,-54.77136 z m 630.75417,0 c 30.7178,-0.005 54.7904,24.05155 54.7933,54.77136 0.01,30.7279 -24.0695,54.80425 -54.7933,54.79827 -30.7179,-0.004 -54.7725,-24.07933 -54.7695,-54.79827 0,-30.71293 24.0573,-54.76839 54.7695,-54.77136 z"
     id="path6"
     inkscape:connector-curvature="0"
     inkscape:export-filename="/tmp/icon.png"
     inkscape:export-xdpi="3"
     inkscape:export-ydpi="3" /><g
     inkscape:groupmode="layer"
     id="layer1"
     inkscape:label="Dev"
     style="display:none"><text
       xml:space="preserve"
       style="font-style:normal;font-variant:normal;font-weight:normal;font-stretch:normal;line-height:0%;font-family:Helvetica;-inkscape-font-specification:Helvetica;text-align:start;letter-spacing:0px;word-spacing:0px;text-anchor:start;fill:#ffffff;fill-opacity:1;stroke:none;stroke-width:1px;stroke-linecap:butt;stroke-linejoin:miter;stroke-opacity:1"
       x="357.40527"
       y="946.11914"
       id="text4136"><tspan
         sodipodi:role="line"
         id="tspan4138"
         x="357.40527"
         y="946.11914"
         style="font-style:normal;font-variant:normal;font-weight:600;font-stretch:normal;font-size:180px;line-height:1.25;font-family:'Open Sans';-inkscape-font-specification:'Open Sans Semi-Bold';fill:#ffffff;fill-opacity:1">Dev</tspan></text>
</g></svg>

<?xml version="1.0" encoding="UTF-8" standalone="no"?>
<!DOCTYPE svg PUBLIC "-//W3C//DTD SVG 1.1//EN" "http://www.w3.org/Graphics/SVG/1.1/DTD/svg11.dtd">
<svg width="100%" height="100%" viewBox="0 0 1064 1064" version="1.1" xmlns="http://www.w3.org/2000/svg" xmlns:xlink="http://www.w3.org/1999/xlink" xml:space="preserve" xmlns:serif="http://www.serif.com/" style="fill-rule:evenodd;clip-rule:evenodd;stroke-linejoin:round;stroke-miterlimit:1.41421;">
    <g id="path6" transform="matrix(1,0,0,1,0,11.9359)">
        <path d="M532.681,316.07C439.33,316.079 360.945,379.999 336.995,465.988C316.091,419.995 270.078,387.4 216.617,387.394C143.844,387.402 84.009,447.243 84,520.022C83.986,592.815 143.829,652.667 216.617,652.676C270.084,652.669 316.067,620.055 336.968,574.055C360.909,660.059 439.321,723.991 532.684,724C625.524,724.01 703.524,660.77 727.961,575.501C749.204,620.649 794.51,652.667 847.356,652.673C920.159,652.686 980.012,592.827 980,520.019C979.99,447.225 920.144,387.379 847.356,387.391C794.507,387.397 749.176,419.409 727.934,464.563C703.497,379.297 625.524,316.058 532.684,316.064L532.681,316.07ZM532.681,393.926C602.787,393.921 658.79,449.913 658.796,520.025C658.8,590.145 602.796,646.156 532.681,646.15C462.575,646.143 406.587,590.136 406.593,520.025C406.6,449.922 462.584,393.935 532.681,393.926ZM216.602,465.25C247.314,465.254 271.366,489.309 271.369,520.022C271.374,550.741 247.319,574.817 216.602,574.82C185.884,574.816 161.83,550.741 161.836,520.022C161.84,489.309 185.892,465.253 216.602,465.25ZM847.356,465.25C878.074,465.245 902.147,489.302 902.15,520.022C902.16,550.75 878.08,574.826 847.356,574.82C816.638,574.816 792.584,550.741 792.587,520.022C792.587,489.309 816.644,465.253 847.356,465.25Z" style="fill:white;fill-rule:nonzero;"/>
    </g>
</svg>
